X:1
T:Madeira, 76.76 D
T:Madeira, 76.76 D
T:D. B. Way, 1879
T:Public Domain Courtesy of the Cyber Hymnal™
C:D. B. Way, 1879
Z:Public Domain
Z:Courtesy of the Cyber Hymnal™
%%score ( 1 2 ) ( 3 4 )
L:1/8
Q:1/4=105
M:6/8
K:A
V:1 treble 
V:2 treble 
V:3 bass 
V:4 bass 
V:1
 E | [Ec]2 [Ec] (cB)[EA] | [FA]3 [FA]2 [DF] | [CE]2 [CA] (AB)[Ec] | [EB]3- [EB]2 E | %5
 [Ec]2 [Ec] (cB)[FA] | [FA]3 [DF]2 [DF] | [CE]2 [CA] [Ec]2 [DB] | [CA]3- [CA]2 [EA] | %9
 [EB]2 [Ec] (dc)[EB] | [Ec]3 [Ee]2 [Ee] | [Ee]2 [Ec] (cB)[EA] | [EB]3- [EB]2 E | %13
 [Ec]2 [Ec] (cB)[EA] | [FA]3 [DF]2 [DF] | [CE]2 [EA] [Ac]2 [GB] | A3- A2 |] %17
V:2
 E | x3 E2 x | x6 | x3 E2 x | x5 E | x3 E2 x | x6 | x6 | x6 | x3 E2 x | x6 | x3 E2 x | x5 E | %13
 x3 E2 x | x6 | x6 | A3- A2 |] %17
V:3
 E, | [A,,A,]2 [A,,A,] ([A,,A,][B,,G,])[C,A,] | [D,A,]3 [D,A,]2 [D,A,] | %3
 [A,,A,]2 [A,,A,] ([C,A,][B,,G,])[A,,A,] | [E,G,]3- [E,G,]2 [E,G,] | %5
 [A,,A,]2 [A,,A,] ([A,,A,][B,,G,])[C,A,] | [D,A,]3 [D,A,]2 [D,A,] | [E,A,]2 [E,A,] [E,A,]2 [E,G,] | %8
 [A,,A,]3- [A,,A,]2 [C,A,] | [E,G,]2 [E,A,] (B,A,)[E,G,] | A,3 [A,C]2 [A,C] | %11
 [A,C]2 A, ([A,,A,][B,,G,])[C,A,] | [E,G,]3- [E,G,]2 [E,G,] | %13
 [A,,A,]2 [A,,A,] ([A,,A,][B,,G,])[C,A,] | [D,A,]3 [D,A,]2 [D,A,] | [E,A,]2 [E,C] [E,E]2 [E,D] | %16
 [A,,C]3- [A,,C]2 |] %17
V:4
 E, | x6 | x6 | x6 | x6 | x6 | x6 | x6 | x6 | x3 E,2 x | A,3 x3 | x2 A, x3 | x6 | x6 | x6 | x6 | %16
 x5 |] %17

